svg/color/jovayethusdce.svg

<svg width="64" height="65" viewBox="0 0 64 65" fill="none" xmlns="http://www.w3.org/2000/svg">
<rect y="0.303711" width="64" height="64" rx="32" fill="#2775CA"/>
<rect x="0.5" y="0.803711" width="63" height="63" rx="31.5" stroke="#070B14" stroke-opacity="0.15"/>
<path d="M40.7999 37.3702C40.7999 32.7036 37.9999 31.1036 32.3999 30.4371C28.3999 29.9036 27.5999 28.8371 27.5999 26.9702C27.5999 25.1033 28.9333 23.9036 31.5999 23.9036C33.9999 23.9036 35.3333 24.7036 35.9999 26.7036C36.1333 27.1036 36.5334 27.3702 36.9334 27.3702H39.0665C39.5999 27.3702 39.9999 26.9702 39.9999 26.4371V26.3036C39.4665 23.3702 37.0665 21.1036 33.9999 20.8371V17.6371C33.9999 17.1036 33.5999 16.7036 32.9334 16.5702H30.9333C30.3999 16.5702 29.9999 16.9702 29.8665 17.6371V20.7036C25.8665 21.2371 23.3333 23.9036 23.3333 27.2371C23.3333 31.6371 25.9999 33.3702 31.5999 34.0371C35.3333 34.7036 36.5334 35.5036 36.5334 37.6371C36.5334 39.7705 34.6665 41.2371 32.1333 41.2371C28.6665 41.2371 27.4665 39.7702 27.0665 37.7702C26.9334 37.2371 26.5333 36.9702 26.1333 36.9702H23.8665C23.3334 36.9702 22.9333 37.3702 22.9333 37.9036V38.0371C23.4665 41.3702 25.5999 43.7702 29.9999 44.4371V47.6371C29.9999 48.1702 30.3999 48.5702 31.0665 48.7036H33.0665C33.5999 48.7036 33.9999 48.3036 34.1334 47.6371V44.4371C38.1334 43.7702 40.7999 40.9702 40.7999 37.3702Z" fill="white"/>
<path d="M25.2 51.3703C14.8 47.6372 9.4666 36.0372 13.3335 25.7703C15.3335 20.1703 19.7335 15.9038 25.2 13.9038C25.7335 13.6372 26 13.2372 26 12.5703V10.7038C26 10.1703 25.7335 9.77033 25.2 9.63721C25.0666 9.63721 24.8 9.63721 24.6666 9.77033C12 13.7703 5.0666 27.2372 9.0666 39.9038C11.4666 47.3703 17.2 53.1038 24.6666 55.5038C25.2 55.7703 25.7335 55.5038 25.8666 54.9703C26 54.8372 26 54.7038 26 54.4372V52.5703C26 52.1703 25.6 51.6372 25.2 51.3703ZM39.3335 9.77033C38.8 9.50377 38.2666 9.77033 38.1335 10.3038C38 10.4372 38 10.5703 38 10.8372V12.7038C38 13.2372 38.4 13.7703 38.8 14.0372C49.2 17.7703 54.5335 29.3703 50.6666 39.6372C48.6666 45.2372 44.2666 49.5038 38.8 51.5038C38.2666 51.7703 38 52.1703 38 52.8372V54.7038C38 55.2372 38.2666 55.6372 38.8 55.7703C38.9335 55.7703 39.2 55.7703 39.3335 55.6372C52 51.6372 58.9335 38.1703 54.9335 25.5038C52.5335 17.9038 46.6666 12.1703 39.3335 9.77033Z" fill="white"/>
</svg>

<svg xmlns="http://www.w3.org/2000/svg" width="64" height="65" fill="none" viewBox="0 0 64 65"><rect width="64" height="64" y=".304" fill="#2775CA" rx="32"/><rect width="63" height="63" x=".5" y=".804" stroke="#070B14" stroke-opacity=".15" rx="31.5"/><path fill="#fff" d="M40.8 37.37c0-4.666-2.8-6.266-8.4-6.933-4-.533-4.8-1.6-4.8-3.467s1.333-3.066 4-3.066c2.4 0 3.733.8 4.4 2.8.133.4.533.666.933.666h2.133c.534 0 .934-.4.934-.933v-.133a6.66 6.66 0 0 0-6-5.467v-3.2c0-.533-.4-.933-1.067-1.067h-2c-.533 0-.933.4-1.067 1.067v3.067c-4 .533-6.533 3.2-6.533 6.533 0 4.4 2.667 6.133 8.267 6.8 3.733.667 4.933 1.467 4.933 3.6s-1.867 3.6-4.4 3.6c-3.467 0-4.667-1.467-5.067-3.467-.133-.533-.533-.8-.933-.8h-2.267c-.533 0-.933.4-.933.934v.133c.534 3.333 2.667 5.733 7.067 6.4v3.2c0 .533.4.933 1.067 1.067h2c.533 0 .933-.4 1.066-1.067v-3.2c4-.667 6.667-3.467 6.667-7.067"/><path fill="#fff" d="M25.2 51.37c-10.4-3.733-15.733-15.333-11.866-25.6 2-5.6 6.4-9.866 11.866-11.866.534-.267.8-.667.8-1.334v-1.866c0-.534-.267-.934-.8-1.067-.133 0-.4 0-.533.133-12.667 4-19.6 17.467-15.6 30.134 2.4 7.466 8.133 13.2 15.6 15.6.533.266 1.066 0 1.2-.534.133-.133.133-.266.133-.533V52.57c0-.4-.4-.933-.8-1.2m14.134-41.6c-.534-.266-1.067 0-1.2.534-.134.133-.134.266-.134.533v1.867c0 .533.4 1.066.8 1.333 10.4 3.733 15.734 15.333 11.867 25.6-2 5.6-6.4 9.867-11.867 11.867-.533.266-.8.666-.8 1.333v1.867c0 .533.267.933.8 1.066.134 0 .4 0 .534-.133 12.666-4 19.6-17.467 15.6-30.133-2.4-7.6-8.267-13.334-15.6-15.734"/></svg>
